X:1
T:Clinch Mountain Backstep
C:Arr:LW; Tab:MW
M:4/4
L:1/4
K:D
%%continueall 1
%%partsbox 1
P:A
|:"D"d B A F|E/2F/2 E D z|d B A F|"A"A3 z
|"D"d B A F|E/2F/2 E D D/2E/2|F F "A"E/2F/2 E|"D"D4:||
P:B
|:"D"D D/2E/2 F/2D/2D/2E/2|F A F E|D D/2E/2 F/2E/2 D|z "C".=C .=C z
|"D"D D/2E/2 F/2E/2D/2E/2|F A F E|F F "A"E/2F/2 E|"D"D4:||
